!!!COM: Palestrina, Giovanni Perluigi da
!!!OPR: Missa De Beata Marie Virginis (I)
!!!OMD: Gloria
!!!OTL: Amen
**kern	**kern	**kern	**kern	**kern
*Ibass	*Itenor	*Itenor	*Icalto	*Icant
!Bassus	!Tenor 2	!Tenor 1	!Altus	!Cantus
*clefF4	*clefGv2	*clefGv2	*clefG2	*clefG2
*k[]	*k[]	*k[]	*k[]	*k[]
*G:mix	*G:mix	*G:mix	*G:mix	*G:mix
*M4/2	*M4/2	*M4/2	*M4/2	*M4/2
=142	=142	=142	=142	=142
0r	0r	0r	1r	1dd
.	.	.	1g	1b
=143	=143	=143	=143	=143
0r	0r	0r	1e	1.cc
.	.	.	[1f	.
.	.	.	.	2b
=144	=144	=144	=144	=144
0r	0r	0r	2f]	2a
.	.	.	2e	2g
.	.	.	2d	2a
.	.	.	4c	[2cc
.	.	.	4d	.
=145	=145	=145	=145	=145
0r	0r	1r	4e	2cc]
.	.	.	4f#	.
.	.	.	1g	2b
.	.	1d	.	1a
.	.	.	2f#	.
=146	=146	=146	=146	=146
1G	0r	1B	2g	1g
.	.	.	2d	.
1E	.	[1c	4e	2r
.	.	.	4d	.
.	.	.	4c	2g
.	.	.	4B	.
=147	=147	=147	=147	=147
1.F	0r	2c]	2A	2a
.	.	2B	2d	2b
.	.	2A	4c	1cc
.	.	.	4d	.
2E	.	2G	4e	.
.	.	.	4c	.
=148	=148	=148	=148	=148
2D	0r	2A	2f	2dd
2C	.	1c	2e	2ee
[1D	.	.	1d	2ff#
.	.	2B	.	[2gg
=149	=149	=149	=149	=149
1D]	1d	1A	1r	2gg]
.	.	.	.	2ff#
1E	1B	[1G	2r	2gg
.	.	.	2g	[2gg
=150	=150	=150	=150	=150
1C	1.c	2G]	2e	2gg]
.	.	2c	2g	2ee
1D	.	2A	2.f	[1ff
.	2B	2B	.	.
.	.	.	4g	.
=151	=151	=151	=151	=151
1C	2A	1.c	4a	2ff]
.	.	.	4b	.
.	2G	.	2.cc	2ee
[1F	2A	.	.	1cc
.	.	.	4b	.
.	[2c	[2f	[2a	.
=152	=152	=152	=152	=152
2F]	2c]	4f]	2a]	1.dd
.	.	4e	.	.
2G	2B	4d	1g	.
.	.	4c	.	.
1D	1A	1d	.	.
.	.	.	2f#	2a
=153	=153	=153	=153	=153
[0G	[0G	[0d	[0g	[0b
=154	=154	=154	=154	=154
0G]	0G]	0d]	0g]	0b]
==	==	==	==	==
*-	*-	*-	*-	*-
!!!CDT: 1525/^1526/-1594/2/2
!!!OCY: Italia
!!!AGN: Mass (Paraphrase)
!!!AST: renaissance, vocal
!!!ASW: Gregorian Mass
!!!PWK: Masses, Book Mantuan I
!!!RNB: Cadence finals: D
!!!YOR: Le Opere Complete, v. 18, p. 83
!!!YOO: Rome, Italy: Fratelli Scalera
!!!END: 1992//
!!!EED: John Miller
!!!YEC: Copyright 2000, John Miller
!!!YEN: United States of America
!!!YEM: Rights to all derivative electronic formats reserved.
!!!YEM: Refer to licensing agreement for further details.
!!!YEM: This file must be accompanied by the licensing agreement.
!!!YEM: A copy of the licensing agreement may be found at http://www.music-cog.ohio-state.edu/HumdrumDatabases/Palestrina/license.txt
!!!EMD: converted to Humdrum by Bret Aarden
